X:29
T: Kesh Jig (Kincora Jig)
O:klezmer
R: jig
Z: 1997 by John Chambers <jc@trillian.mit.edu>
M: 6/8
L: 1/8
K: G
D  | "G"~G3 GAB | "D7"~A3 ABd | "G"edd gdd | "D7"edB dBA
| "G"~G3 "(Em)"GAB | "Am"~A3 "D7"ABd | "G"edd gdB | "D7"AGF "G"G2 :|
|: A  | "G"~B3 dBd | "C"ege "G"dBG | "G"~B3 dBG | "Am"~A3 "D7"AGA
| "G"~B3 dBd | "C"ege "G"dBd | "C"~g3 aga | "D7"bgf "G"g2 :|





